X:21082 
T:HOLLYFORD JIG, The 
B:DMI.0362
Z:Nordberg/Black
N:Another tune of ambiguous modality. The number of 
accented c's leads me to suspect it should be considered 
D modal. If you want to hear the DMI version, replace G 
with D in the K: field.
R:jig
%Q:1/4=160
M:6/8
L:1/8
K:G
"D modal"
F3 AGF|ABA GED|EGE c2A|dfd cAG|
FEF AGF|ABA GED|DED dAG|FEF GED:|
%
c3 cAc|dcA GED|EGE c2A|dfd cAB|
ced cAc|dcA GED|DED dAG|FAF GED:|
%
dFF [AA,]FF|[AA,]FA GED|EGE cde|fed efg|
"21"faf gbg|fdB AGF|EFE dAG|FEF GED:|


%%%

